assets/Electric plug/Flat/electric_plug_flat.svg

<svg width="32" height="32" viewBox="0 0 32 32" fill="none" xmlns="http://www.w3.org/2000/svg">
<path d="M13 7.07617C13 7.58185 13.4526 8 14 8C14.5474 8 15 7.58185 15 7.07617V2.92382C15 2.41815 14.5474 2 14 2C13.4526 2 13 2.41815 13 2.92382V7.07617ZM18 7.07617C18 7.58185 18.4526 8 19 8C19.5474 8 20 7.58185 20 7.07617V2.92382C20 2.41815 19.5474 2 19 2C18.4526 2 18 2.41815 18 2.92382V7.07617Z" fill="#F3AD61"/>
<path d="M11.06 9.93474C10.4455 9.74724 10 9.17681 10 8.5C10 7.67 10.67 7 11.5 7H21.5C22.33 7 23 7.67 23 8.5C23 9.15084 22.588 9.70329 22.01 9.91147V13.27C22.01 15.4124 20.7851 17.2649 19 18.1663V22.0838C19 22.5906 18.5906 23 18.0838 23H18V30H15V23H14.9162C14.4094 23 14 22.5906 14 22.0838V18.1262C12.2542 17.2107 11.06 15.3812 11.06 13.27V9.93474Z" fill="#533566"/>
<path d="M15 12H18C18.27 12 18.5 11.77 18.5 11.5C18.5 11.22 18.27 11 18 11H15C14.72 11 14.5 11.23 14.5 11.5C14.5 11.77 14.73 12 15 12ZM15 14H18C18.27 14 18.5 13.78 18.5 13.5C18.5 13.23 18.27 13 18 13H15C14.72 13 14.5 13.23 14.5 13.5C14.5 13.78 14.73 14 15 14Z" fill="#C790F1"/>
</svg>

<svg xmlns="http://www.w3.org/2000/svg" width="32" height="32" fill="none"><path fill="#F3AD61" d="M13 7.076c0 .506.453.924 1 .924.547 0 1-.418 1-.924V2.924C15 2.418 14.547 2 14 2c-.547 0-1 .418-1 .924v4.152Zm5 0c0 .506.453.924 1 .924.547 0 1-.418 1-.924V2.924C20 2.418 19.547 2 19 2c-.547 0-1 .418-1 .924v4.152Z"/><path fill="#533566" d="M11.06 9.935A1.498 1.498 0 0 1 10 8.5c0-.83.67-1.5 1.5-1.5h10c.83 0 1.5.67 1.5 1.5 0 .65-.412 1.203-.99 1.411v3.359A5.479 5.479 0 0 1 19 18.166v3.918c0 .507-.41.916-.916.916H18v7h-3v-7h-.084a.915.915 0 0 1-.916-.916v-3.958a5.48 5.48 0 0 1-2.94-4.856V9.935Z"/><path fill="#C790F1" d="M15 12h3c.27 0 .5-.23.5-.5 0-.28-.23-.5-.5-.5h-3c-.28 0-.5.23-.5.5s.23.5.5.5Zm0 2h3c.27 0 .5-.22.5-.5 0-.27-.23-.5-.5-.5h-3c-.28 0-.5.23-.5.5 0 .28.23.5.5.5Z"/></svg>
